X:1
T:[ID 3-7a]
T:[ID 3-7a]
T:Bezeichnung standardisiert: Allegro Allegro In dieser Quelle auch als: Tantz
T:Urheber unbekannt Erstbeleg: 1767 (Datum in der schriftlichen Quelle) Datum in der hier transkribierten schriftlichen Quelle: 1799
C:Urheber unbekannt
C:Erstbeleg: 1767 (Datum in der schriftlichen Quelle)
C:Datum in der hier transkribierten schriftlichen Quelle: 1799
%%score 1 2
L:1/8
M:2/4
K:D
V:1 treble nm="Primo"
V:2 treble nm="Secondo"
V:1
 dddd | df/e/ d2 | ffff | fa/f/ f2 | a2 f2 | g2 e2 | fa ag/f/ |{f} e4 :: e2 f2 | eagf | eagf | %11
 e2 z2 | dddd | df/e/ d2 | ffff | fa/f/ f2 | f/e/d Te2 | d4 :| %18
V:2
 !fermata!FFFF | FA/G/ F2 | dddd | df/e/ d2 | f2 d2 | e2 A2 | df fe/d/ | A4 :: c2 d2 | Afed | %10
 Afed | A2 z2 | FFFF | FA/G/ F2 | dddd | df/e/ d2 | dF TG2 | F4 :| %18

